X:61
T:Take a Dance. Ru2.061
%%VWML:RutherfordVol2-2249-p31-0
F:http://www.vwml.org/record/RutherfordVol2/2249/p31
L:1/8
B:RUTHERFORD Complete Collection of 200 Country Dances Vol.2; 1759.
Z:vmp. Peter Dunk 2015
Q:3/8=100
K:A mixolydian
B2c d2e|fed c3|B2c d2e| f2g fdB|B2c d2e|
fed c3| A2B c2d|e2a ecA::a2f g2e|f2d c3|
B2c d2e|f2g fdB|aaf gge|ffd c3|A2B c2d|e2a ecA:|
W:
W:The first Cu: gallop down one Cu: up again & cast off .| Gallop down another Cu:
W:up again & cast off :| Hands round all 6 .| lead to the top and foot it & cast off :|
T:Freegante. Ru2.062
M:6/8
L:1/8
B:RUTHERFORD Complete Collection of 200 Country Dances Vol.2; 1759.
Z:vmp. Peter Dunk 2015
Q:3/8=100
K:G
B2c dBG|gec d2B|A2B cBA|edc B3|B2c dBG|
ge^c d3|b2g afd|ge^c d3::d2e =fed|c2B c2A|
c2d edc|B2A B2G|B2c dBG|ge^c d3|e/f/ge dBG|A/B/cA G3:|
W:
W:Foot it 4 & Right & Left half round .| the same back again :| the first Man
W:figure thro' the 3d. Cu: his Partner thro' the 2d. Cu: at the same time:|
W:figure again the Man thro' the 2d. Cu: the Wo: thro' the 3d. at the same time
W:& meet in the 2d. Cu: places:|
